symbols/web/settings_remote/materialsymbolsrounded/settings_remote_gradN25_48px.svg

<svg xmlns="http://www.w3.org/2000/svg" height="48" width="48"><path d="M30.05 45.6H18q-.7 0-1.3-.575-.6-.575-.6-1.275v-24q0-.7.6-1.275T18 17.9h12.05q.7 0 1.275.575t.575 1.275v24q0 .7-.575 1.275t-1.275.575ZM24 27.85q.85 0 1.45-.6t.6-1.45q0-.9-.6-1.525-.6-.625-1.45-.625-.9 0-1.525.625-.625.625-.625 1.525 0 .85.65 1.45t1.5.6ZM24 11q-1.85 0-3.5.55t-3.05 1.6q-.5.4-1.075.4t-1.025-.45q-.45-.45-.45-1.025t.5-.925q1.75-1.45 3.925-2.25T24 8.1q2.5 0 4.675.8t3.975 2.25q.45.35.45.925 0 .575-.45 1.025-.4.45-1 .45t-1.1-.4q-1.4-1.05-3.05-1.6T24 11Zm0-7.75q-3.45 0-6.5 1.15T12 7.55q-.5.4-1.125.45-.625.05-1.025-.35-.45-.45-.4-1.125.05-.675.55-1.075 2.85-2.4 6.4-3.75Q19.95.35 24 .35t7.575 1.375Q35.1 3.1 37.9 5.5q.5.45.575 1.1.075.65-.375 1.05-.45.45-1.075.4Q36.4 8 35.9 7.6q-2.4-2.05-5.425-3.2Q27.45 3.25 24 3.25ZM19 42.7h10V20.75H19Zm0 0h10Z"/></svg>

<svg xmlns="http://www.w3.org/2000/svg" height="48" width="48"><path d="M30.05 45.6H18Q17.3 45.6 16.7 45.025Q16.1 44.45 16.1 43.75V19.75Q16.1 19.05 16.7 18.475Q17.3 17.9 18 17.9H30.05Q30.75 17.9 31.325 18.475Q31.9 19.05 31.9 19.75V43.75Q31.9 44.45 31.325 45.025Q30.75 45.6 30.05 45.6ZM24 27.85Q24.85 27.85 25.45 27.25Q26.05 26.65 26.05 25.8Q26.05 24.9 25.45 24.275Q24.85 23.65 24 23.65Q23.1 23.65 22.475 24.275Q21.85 24.9 21.85 25.8Q21.85 26.65 22.5 27.25Q23.15 27.85 24 27.85ZM24 11Q22.15 11 20.5 11.55Q18.85 12.1 17.45 13.15Q16.95 13.55 16.375 13.55Q15.8 13.55 15.35 13.1Q14.9 12.65 14.9 12.075Q14.9 11.5 15.4 11.15Q17.15 9.7 19.325 8.9Q21.5 8.1 24 8.1Q26.5 8.1 28.675 8.9Q30.85 9.7 32.65 11.15Q33.1 11.5 33.1 12.075Q33.1 12.65 32.65 13.1Q32.25 13.55 31.65 13.55Q31.05 13.55 30.55 13.15Q29.15 12.1 27.5 11.55Q25.85 11 24 11ZM24 3.25Q20.55 3.25 17.5 4.4Q14.45 5.55 12 7.55Q11.5 7.95 10.875 8Q10.25 8.05 9.85 7.65Q9.4 7.2 9.45 6.525Q9.5 5.85 10 5.45Q12.85 3.05 16.4 1.7Q19.95 0.35 24 0.35Q28.05 0.35 31.575 1.725Q35.1 3.1 37.9 5.5Q38.4 5.95 38.475 6.6Q38.55 7.25 38.1 7.65Q37.65 8.1 37.025 8.05Q36.4 8 35.9 7.6Q33.5 5.55 30.475 4.4Q27.45 3.25 24 3.25ZM19 42.7H29V20.75H19ZM19 42.7H29Z"/></svg>
